svg/color/hash.svg

<svg width="64" height="65" viewBox="0 0 64 65" fill="none" xmlns="http://www.w3.org/2000/svg">
<rect y="0.303711" width="64" height="64" rx="32" fill="white"/>
<rect x="0.5" y="0.803711" width="63" height="63" rx="31.5" stroke="#070B14" stroke-opacity="0.15"/>
<path fill-rule="evenodd" clip-rule="evenodd" d="M32.8606 8.01243C32.2949 7.68238 31.597 7.68238 31.0312 8.01243L11.3603 19.366C10.7945 19.696 10.4456 20.2995 10.4456 20.9502V43.6666C10.4456 44.3173 10.7945 44.9208 11.3603 45.251L19.3286 49.8527V26.825C19.3286 26.1932 19.6587 25.5991 20.1962 25.2691L25.6373 21.9215L30.984 18.6304C31.5688 18.2721 32.3137 18.2721 32.8984 18.6304L38.2451 21.9215L43.6862 25.2691C44.2238 25.5991 44.5537 26.1932 44.5537 26.825V37.7353C44.5537 38.3672 44.2238 38.9613 43.6862 39.2912L38.2451 42.6388L32.8984 45.9299C32.3891 46.2411 31.8705 45.7223 31.8705 45.1188V40.8C31.8705 40.2153 32.3987 39.7628 32.8984 39.4516L37.3776 36.6886C37.9152 36.3586 38.2451 35.7645 38.2451 35.1326V30.7006C38.2451 30.0689 37.9152 29.4748 37.3776 29.1447L32.8984 26.3818C32.3137 26.0234 31.5688 26.0234 30.984 26.3818L26.5048 29.1447C25.9673 29.4748 25.6373 30.0689 25.6373 30.7006V33.9162V47.4481V53.2285C25.6373 53.3135 25.6373 53.3888 25.6183 53.4738L31.0312 56.595C31.597 56.9251 32.2949 56.9251 32.8606 56.595L52.5315 45.2414C53.0974 44.9114 53.4464 44.3079 53.4464 43.6572V20.9502C53.4464 20.2995 53.0974 19.696 52.5315 19.366L32.8606 8.01243Z" fill="#2A7DE1"/>
</svg>

<svg xmlns="http://www.w3.org/2000/svg" width="64" height="65" fill="none" viewBox="0 0 64 65"><rect width="64" height="64" y=".304" fill="#fff" rx="32"/><rect width="63" height="63" x=".5" y=".804" stroke="#070B14" stroke-opacity=".15" rx="31.5"/><path fill="#2A7DE1" fill-rule="evenodd" d="M32.86 8.012a1.81 1.81 0 0 0-1.829 0l-19.67 11.354c-.567.33-.915.933-.915 1.584v22.717c0 .65.348 1.254.914 1.584l7.969 4.602V26.825c0-.632.33-1.226.867-1.556l5.441-3.347 5.347-3.292a1.84 1.84 0 0 1 1.914 0l5.347 3.292 5.441 3.347c.538.33.868.924.868 1.556v10.91a1.83 1.83 0 0 1-.868 1.556l-5.44 3.348-5.348 3.29c-.509.312-1.028-.207-1.028-.81V40.8c0-.585.529-1.037 1.028-1.348l4.48-2.763c.537-.33.867-.925.867-1.556V30.7c0-.632-.33-1.226-.867-1.556l-4.48-2.763a1.84 1.84 0 0 0-1.914 0l-4.48 2.763c-.537.33-.867.924-.867 1.556v22.527c0 .085 0 .16-.019.246l5.413 3.121c.566.33 1.264.33 1.83 0l19.67-11.354c.566-.33.915-.933.915-1.584V20.95c0-.65-.349-1.254-.914-1.584z" clip-rule="evenodd"/></svg>
